X:17895
T:Tuohey's, Patsy
M:C
L:1/8
K:E Dorian
ed|BEE2 BAFA|D2FA DAFA|BEE2 BAFA|Bdeg fe:|!
ed|e2ge bege|defg afdf|e2ge bege|defa geed|!
e2ge bege|defg a2fa|bgaf gefd|Bdeg fe|]!
